brandFactory_export/1.Light/Agua gota _1Light.svg

<?xml version="1.0" encoding="UTF-8"?>
<svg width="24px" height="24px" viewBox="0 0 24 24" version="1.1" xmlns="http://www.w3.org/2000/svg" xmlns:xlink="http://www.w3.org/1999/xlink">
    <title>1.Light/Agua gota _1Light</title>
    <g id="Symbols" stroke="none" stroke-width="1" fill="none" fill-rule="evenodd">
        <g id="1.Light/Agua-gota-_1Light" fill="#5CB615" fill-rule="nonzero">
            <path d="M12.389916,22.6386555 L12.3495798,22.6386555 C10.0134454,22.6386555 8.18151261,21.9932773 6.91428571,20.7260504 C5.63697479,19.4487395 4.98823529,17.5966387 4.97812672,15.2235294 C4.96470588,10.6689076 10.4806723,3.30756303 12.3361345,1.21344538 C14.1983193,3.31092437 19.7445378,10.6756303 19.7580122,15.1798319 C19.7680672,19.9731092 17.1529412,22.6252101 12.389916,22.6386555 M12.6823529,0.144537815 C12.5915966,0.0537815126 12.4672269,0 12.3361345,0 C12.2084034,0 12.0840336,0.0537815126 11.989916,0.144537815 C10.3596639,1.78487395 3.98319328,10.0369748 3.99996684,15.2268908 C4.00672269,17.8319328 4.77647059,19.9764706 6.22184874,21.4252101 C7.6605042,22.8638655 9.77815126,23.6268908 12.3495798,23.6268908 L12.389916,23.6268908 C17.6268908,23.610084 20.7462185,20.4537815 20.7294793,15.1764706 C20.7193277,10.0436975 14.3159664,1.79159664 12.6823529,0.144537815" id="Agua-gota-_1Light"></path>
        </g>
    </g>
</svg>

<svg width="24" height="24" viewBox="0 0 24 24" xmlns="http://www.w3.org/2000/svg"><path d="M12.39 22.639h-.04c-2.337 0-4.168-.646-5.436-1.913-1.277-1.277-1.926-3.13-1.936-5.502-.013-4.555 5.503-11.916 7.358-14.01 1.862 2.097 7.409 9.462 7.422 13.966.01 4.793-2.605 7.445-7.368 7.459M12.682.145A.491.491 0 0012.336 0a.503.503 0 00-.346.145C10.36 1.785 3.983 10.037 4 15.227c.007 2.605.776 4.75 2.222 6.198 1.439 1.439 3.556 2.202 6.128 2.202h.04c5.237-.017 8.356-3.173 8.34-8.45-.01-5.133-6.414-13.385-8.048-15.032" fill="#5CB615" fill-rule="nonzero"/></svg>
